icon-themes/breeze_svg/cmd/lc_graphicfilterinvert.svg

<svg viewBox="0 0 24 24" xmlns="http://www.w3.org/2000/svg"><path d="m4 4v16h16v-16zm15 1v14h-14l3.46875-3.46875c-.904822-.904822-1.46875-2.150538-1.46875-3.53125 0-2.7614237 2.2385763-5 5-5 1.380712 0 2.626428.563928 3.53125 1.46875zm-3.46875 3.46875-7.0625 7.0625c.904822.904822 2.150538 1.46875 3.53125 1.46875 2.761424 0 5-2.238576 5-5 0-1.380712-.563928-2.626428-1.46875-3.53125z" fill="#4d4d4d"/></svg>

<svg xmlns="http://www.w3.org/2000/svg" viewBox="0 0 24 24">
 <path 
     style="fill:#4d4d4d" 
     d="M 4 4 L 4 20 L 20 20 L 20 4 L 4 4 z M 19 5 L 19 19 L 5 19 L 8.46875 15.53125 C 7.563928 14.626428 7 13.380712 7 12 C 7 9.2385763 9.2385763 7 12 7 C 13.380712 7 14.626428 7.563928 15.53125 8.46875 L 19 5 z M 15.53125 8.46875 L 8.46875 15.53125 C 9.373572 16.436072 10.619288 17 12 17 C 14.761424 17 17 14.761424 17 12 C 17 10.619288 16.436072 9.373572 15.53125 8.46875 z "
     />
 </svg>
